X: 1719
T: Mocking Bird Hill
C:George Vaughn Horton, 1951
B: australian traditional tunes wiki
M:3/4
L:1/8
R: Waltz
Q: 1/4=100
K:D
V:1 
||"D"G>FA2d2|f2d2A2|"G"G2B2d2|"Em"g4 (3BcB|"A7"A2c2e2|g2f2g2|"D"f2d2(3BcB|"A7"A4A2|
"D"F2A2d2|f2d2A2|"G"G2B2d2|"Em"g4(3BcB|"A7"A2c2e2|g2f2g2|"D"f2d2d2|d4A>d|
||"D"f4f2|g2(3fgfe2|"G"d2G2B2|"D"A4f2|"A7"g3e cB|A2c2g2|"D"(3fgfd2B2|"A7"A4A2|
"D"f4f2|g2(3fgfe2|"G"d2G2B2|"D"A4f2|"A7"g4(3ecB|A2c2f>g|"D"f2d2d2|d4AA||
|:"D"A2F2A2|A4(3ABA|"A7"G2E2A2|G4A2|"Em"c3Bc2|"A7"c3Bc2|1"D"B2A2A2|A4AB:|2"D"dBA2F2|D4||
% abcbook-tune_id 6342d53a0389531f63dff5c1


% abcbook-boost 0
% abcbook-tablature 
% abcbook-transpose 
% abcbook-lastupdated 1665324379902
% abcbook-soundfonts 
% abcbook-repeats 1
% NFF Book 2015

